X: 16755
T: Hare In The Corn, The
R: jig
M: 6/8
K: Dmajor
|:F2A AFA|B/c/dB AFE|F2E EDE|F2D D3|
F2A AFA|B/c/dB AFA|Bcd ecA|1 ded d3:|2 d3 d2e||
|:f3 fed|g2e ede|f3 fed|aga bag|
f3 fed|g2e edB|ABd ecA|1 ded d2e:|2 d3 d3||

